Origami/16x16/apps/warmux.svg

<svg width="16" height="16" version="1" xmlns="http://www.w3.org/2000/svg">
 <rect transform="rotate(30)" x="10.89" y="-6.34" width="1" height="4" rx=".131" ry=".178" style="fill:#ffd38d"/>
 <path d="m10.739 1.1465c-0.187-0.1077-0.424-0.0442-0.532 0.1424l-0.5288 0.9159a7.0016 7.0016 0 0 0 -7.7402 3.293 7.0016 7.0016 0 0 0 2.5626 9.5642 7.0016 7.0016 0 0 0 9.5644 -2.563 7.0016 7.0016 0 0 0 -1.019 -8.3478l0.53-0.9171c0.107-0.1867 0.044-0.4236-0.143-0.5314l-2.695-1.5559z" fill="#4f4f4f"/>
 <path d="m7.6484375 4c-0.099435-7.417e-4 -0.1903274 0.0024856-0.2695313 0.0097656-0.7452962 0.0687559-1.7170261 0.7585682-2.5410156 1.8027344-0.7965008 1.0093367-1.0253245 1.8143556-0.6855468 2.4082031 0.3826429 0.6687738 0.8255157 1.0485779 1.4433593 1.2402344 0.5285615 0.1639592 0.6859126 0.2643901 1.1386719 0.7187505 0.730823 0.733411 0.9829741 0.81591 2.5195312 0.820312 0.6490434 0.0018 1.4299278-0.025767 1.7363278-0.060547 0.453017-0.05143 0.643409-0.112119 1.017578-0.324219 0.992559-0.562636 1.153667-0.9445695 0.861329-2.0468746-0.091176-0.3437825-0.239509-1.0709951-0.330079-1.6152344-0.090569-0.5442414-0.204542-1.0728066-0.253906-1.1757812-0.219692-0.4582859-0.926588-0.9005281-2.144531-1.3398438-0.6674861-0.2407647-1.7961459-0.4323724-2.4921875-0.4375zm-0.5019531 2c0.6997754 0.033143 0.8571789 0.7238615 0.8535156 1.3144531 0 0.8339693-0.1073805 1.1557782-0.4902344 1.4746094-0.2859469 0.2381307-0.98426 0.2876661-1.1933594 0.0839844-0.2184945-0.2128281-0.3164062-0.6108614-0.3164062-1.2871094 0-1.0184277 0.4095867-1.5856364 1.1464844-1.5859375zm2.8769536 0c0.129756-0.00274 0.267539 0.046468 0.433593 0.1464844 0.171404 0.103245 0.363759 0.2690145 0.427735 0.3691406 0.152583 0.2388074 0.154697 0.7785053 0.003906 1.3769531-0.227359 0.9031773-0.682188 1.2669321-1.3046876 1.0449219-0.2395429-0.0854336-0.5213545-0.4920937-0.5722656-0.8242188-0.0822679-0.5366544 0.2841693-1.6711367 0.6289062-1.9492187 0.1317007-0.1062352 0.2530505-0.1613525 0.382813-0.1640625zm-5.0585942 4c-0.2522933-0.0012-0.5197437 0.06862-0.7773438 0.210938-0.3157197 0.174419-0.9320483 0.781718-1.0957031 1.080078-0.3096904 0.564598 0.2048042 1.43621 0.9765625 1.654296 0.2714706 0.076711 0.2757359 0.077236 0.5214844-0.021484 0.2921604-0.117363 0.434774-0.277134 0.9414062-1.041016 0.3422435-0.516016 0.4342694-0.708084 0.4589844-0.970703 0.027964-0.29712 0.0088293-0.349601-0.1894532-0.5625-0.2141368-0.229931-0.5115606-0.348114-0.8359374-0.349609zm2.2539062 2c-0.4853061 0-0.832071 0.366297-1.0566406 1.117188-0.1946396 0.650824-0.2157097 1.202987-0.0546875 1.396484 0.280476 0.33704 1.3197629 0.610316 1.6367187 0.429687 0.1323121-0.0754 0.1734682-0.189424 0.2363282-0.646484 0.060169-0.437515-0.024506-1.413886-0.1542969-1.791016-0.1157404-0.336295-0.3186439-0.505859-0.6074219-0.505859zm2.7753906 0c-0.043519-3.33e-4 -0.0940188 0.001259-0.1542968 0.005859-0.3595984 0.02745-0.5530246 0.150698-0.7265626 0.458985-0.1156954 0.205523-0.1273569 0.280802-0.1035156 0.697265 0.029756 0.51949 0.1116796 0.7856 0.2519532 0.824219 0.1506682 0.04148 0.8258102-0.019413 1.1230472-0.101562 0.365521-0.101008 0.615234-0.298689 0.615234-0.488282 0-0.202413-0.527166-1.164344-0.712891-1.300781-0.09313-0.06841-0.162404-0.094603-0.2929684-0.095703z" style="fill:#cbcbcb"/>
</svg>

<svg xmlns="http://www.w3.org/2000/svg" width="16" height="16" version="1">
 <rect style="fill:#ffd38d" width="1" height="4" x="10.89" y="-6.34" rx=".131" ry=".178" transform="rotate(30)"/>
 <path fill="#4f4f4f" d="m10.739 1.1465c-0.187-0.1077-0.424-0.0442-0.532 0.1424l-0.5288 0.9159a7.0016 7.0016 0 0 0 -7.7402 3.293 7.0016 7.0016 0 0 0 2.5626 9.5642 7.0016 7.0016 0 0 0 9.5644 -2.563 7.0016 7.0016 0 0 0 -1.019 -8.3478l0.53-0.9171c0.107-0.1867 0.044-0.4236-0.143-0.5314l-2.695-1.5559z"/>
 <path style="fill:#cbcbcb" d="M 7.6484375 4 C 7.5490025 3.9992583 7.4581101 4.0024856 7.3789062 4.0097656 C 6.63361 4.0785215 5.6618801 4.7683338 4.8378906 5.8125 C 4.0413898 6.8218367 3.8125661 7.6268556 4.1523438 8.2207031 C 4.5349867 8.8894769 4.9778595 9.269281 5.5957031 9.4609375 C 6.1242646 9.6248967 6.2816157 9.7253276 6.734375 10.179688 C 7.465198 10.913099 7.7173491 10.995598 9.2539062 11 C 9.9029496 11.0018 10.683834 10.974233 10.990234 10.939453 C 11.443251 10.888023 11.633643 10.827334 12.007812 10.615234 C 13.000371 10.052598 13.161479 9.6706645 12.869141 8.5683594 C 12.777965 8.2245769 12.629632 7.4973643 12.539062 6.953125 C 12.448493 6.4088836 12.33452 5.8803184 12.285156 5.7773438 C 12.065464 5.3190579 11.358568 4.8768157 10.140625 4.4375 C 9.4731389 4.1967353 8.3444791 4.0051276 7.6484375 4 z M 7.1464844 6 C 7.8462598 6.033143 8.0036633 6.7238615 8 7.3144531 C 8 8.1484224 7.8926195 8.4702313 7.5097656 8.7890625 C 7.2238187 9.0271932 6.5255056 9.0767286 6.3164062 8.8730469 C 6.0979117 8.6602188 6 8.2621855 6 7.5859375 C 6 6.5675098 6.4095867 6.0003011 7.1464844 6 z M 10.023438 6 C 10.153194 5.99726 10.290977 6.046468 10.457031 6.1464844 C 10.628435 6.2497294 10.82079 6.4154989 10.884766 6.515625 C 11.037349 6.7544324 11.039463 7.2941303 10.888672 7.8925781 C 10.661313 8.7957554 10.206484 9.1595102 9.5839844 8.9375 C 9.3444415 8.8520664 9.0626299 8.4454063 9.0117188 8.1132812 C 8.9294509 7.5766268 9.2958881 6.4421445 9.640625 6.1640625 C 9.7723257 6.0578273 9.8936755 6.00271 10.023438 6 z M 4.9648438 10 C 4.7125505 9.9988 4.4451001 10.06862 4.1875 10.210938 C 3.8717803 10.385357 3.2554517 10.992656 3.0917969 11.291016 C 2.7821065 11.855614 3.2966011 12.727226 4.0683594 12.945312 C 4.33983 13.022023 4.3440953 13.022548 4.5898438 12.923828 C 4.8820042 12.806465 5.0246178 12.646694 5.53125 11.882812 C 5.8734935 11.366796 5.9655194 11.174728 5.9902344 10.912109 C 6.0181984 10.614989 5.9990637 10.562508 5.8007812 10.349609 C 5.5866444 10.119678 5.2892206 10.001495 4.9648438 10 z M 7.21875 12 C 6.7334439 12 6.386679 12.366297 6.1621094 13.117188 C 5.9674698 13.768012 5.9463997 14.320175 6.1074219 14.513672 C 6.3878979 14.850712 7.4271848 15.123988 7.7441406 14.943359 C 7.8764527 14.867959 7.9176088 14.753935 7.9804688 14.296875 C 8.0406378 13.85936 7.9559628 12.882989 7.8261719 12.505859 C 7.7104315 12.169564 7.507528 12 7.21875 12 z M 9.9941406 12 C 9.9506216 11.999667 9.9001218 12.001259 9.8398438 12.005859 C 9.4802454 12.033309 9.2868192 12.156557 9.1132812 12.464844 C 8.9975858 12.670367 8.9859243 12.745646 9.0097656 13.162109 C 9.0395216 13.681599 9.1214452 13.947709 9.2617188 13.986328 C 9.412387 14.027808 10.087529 13.966915 10.384766 13.884766 C 10.750287 13.783758 11 13.586077 11 13.396484 C 11 13.194071 10.472834 12.23214 10.287109 12.095703 C 10.193979 12.027293 10.124705 12.0011 9.9941406 12 z"/>
</svg>
